public/images/about-star.svg

<svg width="17" height="17" viewBox="0 0 17 17" fill="none" xmlns="http://www.w3.org/2000/svg">
<path d="M0 10.413L8.163 8.164L10.412 16.327L6.298 11.448L0 10.413Z" fill="#6CAC00"/>
<path d="M16.3271 5.914L8.16406 8.164L10.4131 16.327L11.4481 10.029L16.3271 5.914Z" fill="#83BC21"/>
<path d="M16.3261 5.914L8.16306 8.164L5.91406 0L10.0281 4.87901L16.3261 5.914Z" fill="#6CAC00"/>
<path d="M0 10.413L8.163 8.164L5.914 0L4.879 6.298L0 10.413Z" fill="#83BC21"/>
</svg>

<svg xmlns="http://www.w3.org/2000/svg" width="17" height="17" fill="none" xmlns:v="https://vecta.io/nano"><path d="M0 10.413l8.163-2.249 2.249 8.163-4.114-4.879L0 10.413z" fill="#6cac00"/><path d="M16.327 5.914l-8.163 2.25 2.249 8.163 1.035-6.298 4.879-4.115z" fill="#83bc21"/><path d="M16.326 5.914l-8.163 2.25L5.914 0l4.114 4.879 6.298 1.035z" fill="#6cac00"/><path d="M0 10.413L8.163 8.164L5.914 0L4.879 6.298L0 10.413Z" fill="#83bc21"/></svg>
